rospo-newyear-dark/symbolic/status/user-trash-full-symbolic.svg

<svg xmlns="http://www.w3.org/2000/svg" width="16" height="16" version="1.1">
 <path style="fill:#d3dae3" d="M 1,5 V 8 C 1,9 1.06,10.15 1.2,11 1.34,11.85 2,14 2,14 2,14 2.48,15 3,15 H 12 C 12.52,15 13,14 13,14 13,14 13.66,11.85 13.8,11 13.94,10.15 14,9 14,8 V 5 Z"/>
 <path style="fill:#d3dae3" d="M 1,3 V 4 H 14 V 3 C 14,2 13,2 13,2 H 10 C 10,2 10,1 9,1 H 6 C 5,1 5,2 5,2 H 2 C 2,2 1,2 1,3 Z"/>
</svg>

<svg height="16" width="16" xmlns="http://www.w3.org/2000/svg"><path d="m1 5v3c0 1 .06 2.15.2 3s .8 3 .8 3 .48 1 1 1h9c .52 0 1-1 1-1s .66-2.15.8-3 .2-2 .2-3v-3z" fill="#d3dae3"/><path d="m1 3v1h13v-1c0-1-1-1-1-1h-3s0-1-1-1h-3c-1 0-1 1-1 1h-3s-1 0-1 1z" fill="#d3dae3"/></svg>
